images/LOGOS_CLIENTES/NUCLEOELECTRICA.svg

<svg width="99" height="18" viewBox="0 0 99 18" fill="none" xmlns="http://www.w3.org/2000/svg">
<path fill-rule="evenodd" clip-rule="evenodd" d="M95.5144 17.197V16.6448H96.0009L95.5144 15.443V14.6755H95.8974L97.359 17.9457H96.5578L96.2452 17.1951H95.5144V17.197ZM97.7399 17.3149H98.4355V17.9495H97.7399V17.3149ZM95.5144 14.6774V15.4449L95.0278 16.6466H95.5144V17.1988H94.8022L94.5061 17.9495H93.7236L95.1314 14.6793H95.5144V14.6774ZM85.6846 17.197V16.6448H86.1711L85.6846 15.443V14.6755H86.0676L87.5293 17.9457H86.7281L86.4155 17.1951H85.6846V17.197ZM89.1296 16.8806L89.8438 16.8132C89.879 17.0304 89.966 17.197 90.1047 17.298C90.2268 17.3991 90.4007 17.4478 90.6264 17.4478C90.8707 17.4478 91.0446 17.3991 91.1647 17.3149C91.2868 17.2138 91.3386 17.1146 91.3386 16.9967C91.3386 16.9143 91.32 16.8469 91.2682 16.7964C91.2164 16.7458 91.1295 16.6972 91.0073 16.6635C90.9204 16.6298 90.7113 16.5792 90.4152 16.5137C90.0157 16.4295 89.7548 16.3134 89.5975 16.1974C89.3718 16.0139 89.2497 15.7968 89.2497 15.5291C89.2497 15.3625 89.3014 15.2109 89.4049 15.0611C89.5105 14.9282 89.6658 14.8103 89.8583 14.7448C90.0674 14.6606 90.2931 14.6269 90.5705 14.6269C91.0239 14.6269 91.3717 14.7092 91.5974 14.8946C91.8417 15.078 91.9452 15.312 91.9638 15.6115L91.233 15.6452C91.1978 15.4786 91.1274 15.3438 91.0405 15.2783C90.937 15.2109 90.7796 15.1604 90.5705 15.1604C90.3614 15.1604 90.1875 15.2109 90.0674 15.2933C89.997 15.3438 89.9639 15.4112 89.9639 15.4936C89.9639 15.5591 89.9991 15.6265 90.0674 15.6938C90.1544 15.7612 90.38 15.8267 90.7279 15.911C91.0922 15.9784 91.3552 16.0607 91.527 16.145C91.703 16.2292 91.823 16.3284 91.9266 16.48C92.0135 16.6129 92.0653 16.7814 92.0653 16.9967C92.0653 17.1801 92.0135 17.3467 91.8913 17.5152C91.7858 17.6818 91.6139 17.7978 91.4048 17.8821C91.1957 17.9644 90.9349 17.9981 90.6223 17.9981C90.1523 17.9981 89.8045 17.8989 89.5623 17.7136C89.3201 17.532 89.1814 17.2475 89.1296 16.8806ZM92.6781 17.3149H93.3737V17.9495H92.6781V17.3149ZM85.6846 14.6774V15.4449H85.6681L85.1815 16.6466H85.6867V17.1988H84.9559L84.6598 17.9495H83.8938L85.3037 14.6793H85.6846V14.6774ZM62.9839 16.7458V16.0626C63.2096 16.0458 63.3669 16.0458 63.4352 16.0121C63.5222 15.9952 63.5926 15.9447 63.6443 15.8773C63.6961 15.8118 63.7127 15.7275 63.7127 15.6265C63.7127 15.5254 63.6775 15.443 63.6091 15.3775C63.5553 15.2933 63.4518 15.2596 63.3483 15.2446C63.2965 15.2446 63.1744 15.2277 62.9839 15.2277V14.6774H63.0522C63.4352 14.6774 63.7147 14.7111 63.8866 14.7616C64.0605 14.8272 64.1992 14.9282 64.3048 15.078C64.4103 15.2277 64.4621 15.3943 64.4621 15.5946C64.4621 15.8455 64.3938 16.0458 64.2178 16.1955C64.0625 16.3621 63.8348 16.4613 63.5056 16.4969C63.663 16.5792 63.8017 16.6803 63.9052 16.7814C64.0108 16.8825 64.1474 17.0491 64.3234 17.298L64.7582 17.9476H63.8866L63.3648 17.2307C63.1744 16.9798 63.0522 16.8301 62.9839 16.7458ZM66.845 16.7458V16.1955H68.4101V17.4965C68.2528 17.6312 68.0437 17.7473 67.7497 17.8465C67.4537 17.9476 67.1576 17.9981 66.8616 17.9981C66.4786 17.9981 66.1494 17.9307 65.8699 17.781C65.5904 17.6312 65.3834 17.4309 65.2447 17.1633C65.106 16.8956 65.0356 16.6111 65.0356 16.2947C65.0356 15.9597 65.1039 15.6601 65.2612 15.3925C65.4186 15.1248 65.6608 14.9245 65.9568 14.7916C66.1825 14.6737 66.4786 14.625 66.8264 14.625C67.2798 14.625 67.6255 14.7074 67.8698 14.8758C68.1307 15.0424 68.288 15.2764 68.3584 15.5778L67.6441 15.7107C67.5924 15.5441 67.4868 15.4093 67.3481 15.327C67.2094 15.2259 67.0355 15.1941 66.8264 15.1941C66.5138 15.1941 66.2529 15.2764 66.0604 15.4599C65.8699 15.6433 65.7829 15.911 65.7829 16.2779C65.7829 16.6616 65.8699 16.9461 66.0604 17.1464C66.2508 17.3299 66.5138 17.4291 66.8077 17.4291C66.963 17.4291 67.1204 17.4122 67.2777 17.3448C67.433 17.2962 67.5551 17.2288 67.6773 17.1614V16.744H66.845V16.7458ZM69.0892 17.9476V14.6774H71.7682V15.2277H69.82V15.9615H71.6294V16.4969H69.82V17.3991H71.8385V17.9495H69.0892V17.9476ZM72.4638 17.9476V14.6774H73.178L74.6562 16.8638V14.6774H75.3332V17.9476H74.6024L73.1408 15.8118V17.9476H72.4638ZM76.9335 17.9476V15.2277H75.8549V14.6774H78.7264V15.2277H77.6664V17.9476H76.9335ZM79.1798 14.6774H79.9085V17.9476H79.1798V14.6774ZM80.6041 17.9476V14.6774H81.3184L82.7966 16.8638V14.6774H83.4756V17.9476H82.7448L81.2832 15.8118V17.9476H80.6041ZM62.9839 14.6774V15.2277H62.81H62.2365V16.0626H62.7748H62.9839V16.7458H62.9674C62.897 16.6803 62.8286 16.6448 62.7583 16.6129C62.6713 16.5961 62.5492 16.5792 62.3939 16.5792H62.2365V17.9476H61.5057V14.6774H62.9839ZM59.2781 17.197V16.6448H59.7646L59.2781 15.443V14.6755H59.6611L61.1227 17.9457H60.3215L60.0089 17.1951H59.2781V17.197ZM59.2781 14.6774V15.4449L58.7916 16.6466H59.2781V17.1988H58.5639L58.2512 17.9495H57.4852L58.893 14.6793H59.2781V14.6774ZM54.2328 17.197V16.6448H54.738L54.2328 15.443V14.6755H54.6324L56.0588 17.9457H55.2762L54.9636 17.1951H54.2328V17.197ZM54.2328 14.6774V15.4449L53.7463 16.6466H54.2328V17.1988H53.5186L53.2225 17.9495H52.4399L53.8477 14.6793H54.2328V14.6774ZM45.5686 16.7458V16.0626C45.8129 16.0458 45.9682 16.0458 46.0386 16.0121C46.1256 15.9952 46.1959 15.9447 46.2477 15.8773C46.2829 15.8118 46.316 15.7275 46.316 15.6265C46.316 15.5254 46.2808 15.443 46.2125 15.3775C46.1608 15.2933 46.0552 15.2596 45.933 15.2446C45.8978 15.2446 45.7757 15.2277 45.5686 15.2277V14.6774H45.637C46.0365 14.6774 46.316 14.7111 46.4899 14.7616C46.6638 14.8272 46.8025 14.9282 46.9061 15.078C47.0116 15.2277 47.0634 15.3943 47.0634 15.5946C47.0634 15.8455 46.993 16.0458 46.8191 16.1955C46.6618 16.3621 46.4195 16.4613 46.1049 16.4969C46.2622 16.5792 46.4009 16.6803 46.5044 16.7814C46.61 16.8825 46.7487 17.0491 46.9226 17.298L47.3574 17.9476H46.492L45.9537 17.2307C45.7777 16.9798 45.639 16.8301 45.5686 16.7458ZM47.7259 14.6774H48.4567V17.9476H47.7259V14.6774ZM51.4835 16.7458L52.1791 16.9461C52.0756 17.298 51.8996 17.5639 51.6387 17.7304C51.3944 17.9139 51.0653 17.9981 50.6823 17.9981C50.1957 17.9981 49.8127 17.8465 49.5001 17.547C49.1875 17.2625 49.0302 16.8451 49.0302 16.3453C49.0302 15.7949 49.1875 15.3775 49.5001 15.0761C49.8148 14.7747 50.2123 14.625 50.7175 14.625C51.1688 14.625 51.5352 14.7429 51.7961 14.975C51.97 15.1079 52.0921 15.3082 52.1791 15.5759L51.4483 15.7257C51.4131 15.5591 51.3261 15.4243 51.1874 15.3251C51.0466 15.224 50.8748 15.1922 50.6823 15.1922C50.4214 15.1922 50.1957 15.2745 50.0384 15.4411C49.8645 15.6246 49.7775 15.8923 49.7775 16.2928C49.7775 16.6934 49.8645 16.9929 50.0384 17.1614C50.1957 17.3448 50.4028 17.4291 50.6823 17.4291C50.8727 17.4291 51.0301 17.3785 51.1688 17.2625C51.3096 17.1651 51.4151 16.9798 51.4835 16.7458ZM45.5686 14.6774V15.2277H45.4113H44.8378V16.0626H45.3761H45.5686V16.7458C45.4983 16.6803 45.4299 16.6448 45.3596 16.6129C45.2726 16.5961 45.1504 16.5792 44.9952 16.5792H44.8378V17.9476H44.107V14.6774H45.5686ZM25.1991 17.9981V17.4309H25.2177C25.4951 17.4309 25.7394 17.3467 25.9299 17.1483C26.1038 16.9648 26.2073 16.6803 26.2073 16.2966C26.2073 15.9297 26.1204 15.6452 25.9299 15.4617C25.756 15.2783 25.5117 15.1959 25.2177 15.1959H25.1991V14.6287C25.7394 14.6287 26.1556 14.7785 26.4868 15.0799C26.7994 15.3644 26.9568 15.7799 26.9568 16.3153C26.9568 16.8488 26.7994 17.2494 26.4868 17.5489C26.1742 17.8484 25.7394 18 25.2177 18H25.1991V17.9981ZM27.5302 17.9476V14.6774H30.2092V15.2277H28.261V15.9615H30.087V16.4969H28.261V17.3991H30.2796V17.9495H27.5302V17.9476ZM30.9214 17.9476V14.7092H31.6522V17.3973H33.4782V17.9476H30.9214ZM33.9999 17.9476V14.6774H36.6788V15.2277H34.7307V15.9615H36.5401V16.4969H34.7307V17.3991H36.7492V17.9495H33.9999V17.9476ZM39.6725 16.7458L40.3846 16.9461C40.2811 17.298 40.1072 17.5639 39.8464 17.7304C39.6041 17.9139 39.2729 17.9981 38.8899 17.9981C38.4034 17.9981 38.0017 17.8465 37.7057 17.547C37.3931 17.2625 37.2357 16.8451 37.2357 16.3453C37.2357 15.7949 37.3931 15.3775 37.7057 15.0761C38.0183 14.7747 38.4199 14.625 38.9251 14.625C39.3764 14.625 39.7242 14.7429 40.0037 14.975C40.1776 15.1079 40.2998 15.3082 40.3867 15.5759L39.6559 15.7257C39.6207 15.5591 39.5338 15.4243 39.395 15.3251C39.2563 15.224 39.0824 15.1922 38.8899 15.1922C38.629 15.1922 38.4034 15.2745 38.246 15.4411C38.0721 15.6246 37.9852 15.8923 37.9852 16.2928C37.9852 16.6934 38.0721 16.9929 38.2295 17.1614C38.4034 17.3448 38.6125 17.4291 38.8733 17.4291C39.0824 17.4291 39.2377 17.3785 39.3785 17.2625C39.5151 17.1651 39.6207 16.9798 39.6725 16.7458ZM41.8297 17.9476V15.2277H40.7511V14.6774H43.6391V15.2277H42.5605V17.9476H41.8297ZM6.18555 17.9476V14.6774H6.8998L8.37798 16.8638V14.6774H9.05704V17.9476H8.32622L6.8646 15.8118V17.9476H6.18555ZM25.1991 14.6269V15.1941C24.903 15.1941 24.6587 15.2764 24.4869 15.4599C24.2944 15.6433 24.2074 15.9278 24.2074 16.3116C24.2074 16.6785 24.2944 16.9611 24.4869 17.1464C24.6774 17.3299 24.9217 17.4291 25.1991 17.4291V17.9963C24.6774 17.9963 24.2426 17.8446 23.93 17.5451C23.6174 17.2606 23.4435 16.8432 23.4435 16.3265C23.4435 15.9933 23.5118 15.7088 23.6174 15.4936C23.7043 15.3251 23.8099 15.1753 23.9486 15.0424C24.106 14.9095 24.2612 14.8084 24.4186 14.7598C24.6422 14.6606 24.903 14.6269 25.1991 14.6269ZM9.83754 14.6774H10.5518V16.4463C10.5518 16.729 10.5683 16.9143 10.587 16.9967C10.6222 17.1296 10.6926 17.2307 10.8126 17.3149C10.9348 17.3991 11.0901 17.4328 11.2992 17.4328C11.5083 17.4328 11.6635 17.3991 11.7691 17.3149C11.8747 17.2475 11.9265 17.1483 11.9617 17.0322C11.9782 16.9312 11.9782 16.7477 11.9782 16.4819V14.6793H12.709V16.3977C12.709 16.7814 12.6904 17.0659 12.6573 17.2325C12.6221 17.3823 12.5538 17.5171 12.4316 17.6331C12.3281 17.7492 12.1873 17.8334 12.0134 17.9008C11.8395 17.9663 11.5952 18 11.3178 18C10.97 18 10.7091 17.9663 10.5352 17.8839C10.3448 17.8166 10.204 17.7342 10.1005 17.6163C9.99695 17.4983 9.94312 17.3823 9.91 17.2494C9.85824 17.0659 9.83961 16.7814 9.83961 16.4145V14.6774H9.83754ZM15.8041 16.7458L16.5184 16.9461C16.3962 17.298 16.2223 17.5639 15.9615 17.7304C15.7172 17.9139 15.388 17.9981 15.005 17.9981C14.5185 17.9981 14.1355 17.8465 13.8228 17.547C13.5102 17.2625 13.3529 16.8451 13.3529 16.3453C13.3529 15.7949 13.5082 15.3775 13.8228 15.0761C14.1355 14.7747 14.5537 14.625 15.0567 14.625C15.4915 14.625 15.8579 14.7429 16.1354 14.975C16.2927 15.1079 16.4148 15.3082 16.4997 15.5759L15.7689 15.7257C15.7337 15.5591 15.6468 15.4243 15.5081 15.3251C15.3693 15.224 15.212 15.1922 15.0215 15.1922C14.7421 15.1922 14.533 15.2745 14.3611 15.4411C14.1872 15.6246 14.1168 15.8923 14.1168 16.2928C14.1168 16.6934 14.1851 16.9929 14.3611 17.1614C14.5185 17.3448 14.7441 17.4291 15.005 17.4291C15.1954 17.4291 15.3528 17.3785 15.5101 17.2625C15.6488 17.1651 15.7358 16.9798 15.8041 16.7458ZM17.1622 17.9476V14.7092H17.893V17.3973H19.7025V17.9476H17.1622ZM20.2242 17.9476V14.6774H22.9031V15.2277H20.955V15.9615H22.7831V16.4969H20.955V17.3991H22.9735V17.9495H20.2242V17.9476Z" fill="black"/>
<path d="M15.4023 9C14.6589 9 13.6296 8.25548 12.8393 7.15031C11.7855 5.67182 11.4976 4.08999 12.1797 3.55006C12.3267 3.43406 12.5085 3.375 12.7209 3.375C13.4642 3.375 14.4935 4.11952 15.2818 5.22469C16.3356 6.70318 16.6235 8.2829 15.9414 8.82283C15.7944 8.94094 15.6126 9 15.4023 9ZM12.7209 3.58802C12.5554 3.58802 12.4145 3.63231 12.3042 3.71879C11.7304 4.17224 12.049 5.68659 13.0027 7.02376C13.7542 8.08043 14.7181 8.78909 15.4002 8.78909C15.5657 8.78909 15.7066 8.7448 15.8168 8.65621C16.3907 8.20275 16.0701 6.69052 15.1164 5.35124C14.3669 4.29668 13.405 3.58802 12.7209 3.58802Z" fill="black"/>
<path d="M12.7384 9C12.5378 9 12.3644 8.94815 12.2202 8.84652C11.5036 8.34251 11.7501 6.77862 12.7802 5.28733C13.5721 4.14242 14.6168 3.375 15.3836 3.375C15.5821 3.375 15.7576 3.42685 15.9018 3.52848C16.6163 4.03457 16.3719 5.59845 15.3418 7.08974C14.5499 8.2305 13.5052 9 12.7384 9ZM15.3836 3.58034C14.6941 3.58034 13.6954 4.32909 12.9536 5.40349C12.0217 6.75373 11.7418 8.25332 12.3414 8.67644C12.4501 8.75318 12.5838 8.79051 12.7384 8.79259C13.4279 8.79259 14.4266 8.04383 15.1684 6.96944C16.1003 5.61919 16.3802 4.12168 15.7806 3.69649C15.6719 3.61975 15.5382 3.58034 15.3836 3.58034Z" fill="black"/>
<path d="M13.9353 7.875C12.1315 7.875 10.7033 7.16656 10.6857 6.2647C10.666 5.32011 12.1337 4.54644 14.0276 4.50146C15.9083 4.46323 17.4178 5.18067 17.4353 6.10951C17.4551 7.0541 15.9852 7.82777 14.0935 7.8705C14.0386 7.87275 13.9858 7.875 13.9353 7.875ZM14.1814 4.72636C14.1309 4.72636 14.0803 4.72636 14.0298 4.72861C12.3204 4.76685 10.8879 5.46854 10.9033 6.2602C10.9186 7.04961 12.3622 7.68833 14.0847 7.64785C15.7941 7.60961 17.2266 6.90792 17.2112 6.11626C17.1981 5.34934 15.838 4.72636 14.1814 4.72636Z" fill="black"/>
<path fill-rule="evenodd" clip-rule="evenodd" d="M13.4889 5.62511C13.8001 5.61911 14.0564 5.86685 14.0605 6.17851C14.0646 6.48818 13.8164 6.7459 13.5072 6.74989C13.198 6.75589 12.9397 6.50815 12.9356 6.19649C12.9315 5.88682 13.1797 5.6311 13.4889 5.62511Z" fill="black"/>
<path d="M15.7483 12.375C9.72447 12.375 5.49005 11.8218 2.99459 9.06213C1.25765 7.14209 0.464829 4.21106 0.569731 0.099799L0.571749 0.0108483H2.83118L2.82917 0.104138C2.65971 6.70819 5.19956 10.5765 10.1986 11.3814C5.50014 10.0536 3.34359 6.43049 3.43841 0.104138L3.44042 0.0130175L5.81888 0.0108483L5.81485 0.106307C5.61109 5.40647 7.0071 8.69331 10.2994 10.4897C7.50942 8.53493 6.23244 5.05067 6.50276 0.101968L6.5068 0.0151875L8.72589 0.00433916C8.972 0.00650869 9.2161 0.0151868 9.45818 0.023865C10.3055 0.00867825 11.0095 0 11.6672 0C16.7892 0 21.9375 0.442584 24.903 3.65783C26.7186 5.62559 27.5881 8.44164 27.5599 12.2709V12.362L25.3045 12.3642L25.3085 12.2687C25.4961 6.55849 23.7451 3.24562 19.547 1.68356C23.1762 3.3823 24.7901 6.76459 24.7073 12.2687L24.7053 12.3576L22.3188 12.3598L22.3249 12.2622C22.6436 6.97504 21.2395 3.69905 17.808 1.90485C20.6646 3.85309 21.9456 7.33084 21.6208 12.2774L21.6147 12.3642L19.2867 12.3663C18.9438 12.3685 18.6008 12.3642 18.2619 12.3533C17.5175 12.3642 16.6319 12.375 15.7483 12.375ZM0.737172 0.193089C0.646391 4.20455 1.42509 7.06399 3.11563 8.93412C5.56873 11.646 9.76886 12.1906 15.7483 12.1906C16.6319 12.1906 18.9579 12.1841 19.3069 12.1819H19.4824L21.4574 12.1797C21.8124 6.45869 19.9787 2.75096 16.0065 1.15419L16.061 0.980628C20.8623 2.55137 22.8494 6.00743 22.5024 12.1754L24.5399 12.1732C24.6186 5.46505 22.1171 1.98729 16.4382 0.900355L16.4665 0.720285C22.9906 1.74213 25.6918 5.16999 25.484 12.1797L27.3924 12.1776C27.4045 8.44815 26.5512 5.70152 24.784 3.78583C21.8629 0.620486 16.7529 0.182241 11.6692 0.182241C11.0115 0.182241 10.3095 0.188749 9.45818 0.206106C9.23224 0.197427 9.00831 0.190919 8.78439 0.18658L8.72589 0.195258L6.67222 0.197427C6.3797 5.95753 8.21751 9.68478 12.1413 11.275L12.0868 11.4486C7.41864 9.89957 5.42953 6.42615 5.64942 0.193089L3.61593 0.195258C3.53726 6.98372 6.1114 10.5851 11.7095 11.5267L11.6934 11.709C5.62521 11.4638 2.50437 7.48054 2.66576 0.190919L0.737172 0.193089Z" fill="black"/>
</svg>

<svg width="99" height="18" fill="none" xmlns="http://www.w3.org/2000/svg"><path fill-rule="evenodd" clip-rule="evenodd" d="M95.514 17.197v-.552h.487l-.487-1.202v-.768h.383l1.462 3.27h-.801l-.313-.75h-.73v.002Zm2.226.118h.696v.634h-.696v-.634Zm-2.226-2.638v.768l-.486 1.202h.486v.552h-.712l-.296.75h-.782l1.407-3.27h.383v-.002Zm-9.83 2.52v-.552h.487l-.486-1.202v-.768h.383l1.461 3.27h-.8l-.314-.75h-.73v.002Zm3.446-.316.714-.068c.035.217.122.384.26.485.123.101.297.15.522.15.245 0 .419-.049.539-.133.122-.101.174-.2.174-.318 0-.083-.019-.15-.07-.2a.605.605 0 0 0-.262-.134 5.67 5.67 0 0 0-.592-.15c-.4-.084-.66-.2-.818-.316-.225-.183-.347-.4-.347-.668 0-.166.051-.318.155-.468a.988.988 0 0 1 .453-.316c.21-.084.435-.118.712-.118.454 0 .802.082 1.027.268.245.183.348.417.367.716l-.731.034c-.035-.166-.106-.301-.193-.367a.862.862 0 0 0-.47-.118c-.209 0-.382.05-.503.133a.234.234 0 0 0-.103.2c0 .066.035.133.103.2.087.068.313.134.66.218.365.067.628.15.8.234a.941.941 0 0 1 .4.335.92.92 0 0 1 .138.517c0 .183-.052.35-.174.518-.105.167-.277.283-.486.367-.21.082-.47.116-.783.116-.47 0-.817-.1-1.06-.284-.242-.182-.38-.466-.432-.833Zm3.548.434h.696v.634h-.696v-.634Zm-6.993-2.638v.768h-.017l-.487 1.202h.506v.552h-.731l-.296.75h-.766l1.41-3.27h.38v-.002Zm-22.701 2.069v-.683c.226-.017.383-.017.451-.05a.347.347 0 0 0 .21-.136c.051-.065.068-.15.068-.25a.33.33 0 0 0-.104-.25c-.054-.084-.157-.117-.26-.132-.052 0-.175-.017-.365-.017v-.55h.068c.383 0 .663.033.835.084a.866.866 0 0 1 .575.833c0 .25-.068.45-.244.6-.156.167-.383.266-.712.302.157.082.296.183.4.284.105.102.241.268.417.517l.435.65h-.871l-.522-.717c-.19-.251-.313-.4-.381-.485Zm3.861 0v-.55h1.565v1.3a1.95 1.95 0 0 1-.66.35 2.733 2.733 0 0 1-.888.152c-.383 0-.713-.067-.992-.217-.28-.15-.487-.35-.625-.618a1.846 1.846 0 0 1-.21-.868c0-.335.069-.635.226-.903.158-.267.4-.467.696-.6.226-.118.522-.167.87-.167.453 0 .799.082 1.043.25.26.167.418.401.488.703l-.714.133a.673.673 0 0 0-.296-.384c-.139-.101-.313-.133-.522-.133-.312 0-.573.082-.766.266-.19.183-.277.451-.277.818 0 .384.087.668.277.868.19.184.454.283.748.283.155 0 .312-.017.47-.084.155-.049.277-.116.4-.184v-.417h-.833v.002Zm2.244 1.202v-3.27h2.68v.55H69.82v.733h1.81v.536h-1.81v.902h2.019v.55h-2.75v-.001Zm3.375 0v-3.27h.714l1.478 2.186v-2.187h.677v3.27h-.73l-1.462-2.135v2.136h-.677Zm4.47 0v-2.72h-1.08v-.55h2.872v.55h-1.06v2.72h-.733Zm2.246-3.27h.728v3.27h-.728v-3.27Zm1.424 3.27v-3.27h.714l1.479 2.186v-2.187h.679v3.27h-.731l-1.462-2.135v2.136h-.679Zm-17.62-3.27v.55h-.748v.835h.748v.683h-.017a.726.726 0 0 0-.209-.133 1.908 1.908 0 0 0-.364-.034h-.157v1.369h-.731v-3.27h1.478Zm-3.706 2.519v-.552h.487l-.487-1.202v-.768h.383l1.462 3.27h-.801l-.313-.75h-.73v.002Zm0-2.52v.768l-.486 1.202h.486v.552h-.714l-.313.75h-.766l1.408-3.27h.385v-.002Zm-5.045 2.52v-.552h.505l-.505-1.202v-.768h.4l1.426 3.27h-.783l-.312-.75h-.731v.002Zm0-2.52v.768l-.487 1.202h.487v.552h-.714l-.297.75h-.782l1.408-3.27h.385v-.002Zm-8.664 2.069v-.683c.244-.017.4-.017.47-.05a.347.347 0 0 0 .209-.136.526.526 0 0 0 .068-.25.33.33 0 0 0-.104-.25c-.051-.084-.157-.117-.279-.132-.035 0-.157-.017-.364-.017v-.55h.068c.4 0 .679.033.853.084a.862.862 0 0 1 .574.833c0 .25-.071.45-.245.6-.157.167-.4.266-.714.302.157.082.296.183.4.284.105.102.244.268.418.517l.434.65h-.865l-.538-.717c-.176-.251-.315-.4-.385-.485Zm2.157-2.069h.73v3.27h-.73v-3.27Zm3.758 2.069.695.2c-.103.352-.28.618-.54.784-.245.184-.574.268-.957.268-.486 0-.87-.152-1.182-.451-.313-.285-.47-.702-.47-1.202 0-.55.157-.967.47-1.269.315-.301.712-.451 1.218-.451.45 0 .817.118 1.078.35.174.133.296.333.383.6l-.73.15a.64.64 0 0 0-.262-.4c-.14-.101-.312-.133-.505-.133-.26 0-.486.082-.644.25-.173.183-.26.45-.26.85 0 .401.087.7.26.87.158.183.365.267.644.267a.72.72 0 0 0 .487-.166c.14-.098.246-.283.315-.517Zm-5.915-2.069v.55h-.731v.836H45.569v.683a.724.724 0 0 0-.21-.133 1.909 1.909 0 0 0-.364-.034h-.157v1.369h-.731v-3.27h1.462Zm-20.37 3.321v-.567h.019c.277 0 .521-.084.712-.283.174-.183.277-.468.277-.851 0-.367-.087-.652-.277-.835-.174-.184-.418-.266-.712-.266h-.019v-.567c.54 0 .957.15 1.288.45.312.285.47.7.47 1.236 0 .534-.158.934-.47 1.234-.313.3-.748.451-1.27.451H25.2v-.002Zm2.331-.05v-3.27h2.68v.55H28.26v.733h1.826v.536h-1.826v.902h2.019v.55h-2.75v-.001Zm3.391 0v-3.239h.731v2.688h1.826v.55h-2.557Zm3.079 0v-3.27h2.679v.55H34.73v.733h1.81v.536h-1.81v.902h2.018v.55H34v-.001Zm5.672-1.202.713.2c-.104.352-.278.618-.539.784-.242.184-.573.268-.956.268-.487 0-.888-.152-1.184-.451-.313-.285-.47-.702-.47-1.202 0-.55.157-.967.47-1.269.312-.301.714-.451 1.22-.451.45 0 .798.118 1.078.35.174.133.296.333.383.6l-.731.15a.64.64 0 0 0-.261-.4c-.139-.101-.313-.133-.505-.133-.261 0-.487.082-.644.25-.174.183-.26.45-.26.85 0 .401.086.7.244.87a.837.837 0 0 0 .643.267.74.74 0 0 0 .506-.166c.136-.098.242-.283.294-.517Zm2.158 1.202v-2.72H40.75v-.55h2.888v.55H42.56v2.72h-.73Zm-35.644 0v-3.27H6.9l1.478 2.186v-2.187h.679v3.27h-.73l-1.462-2.135v2.136h-.68Zm19.013-3.321v.567c-.296 0-.54.082-.712.266-.193.183-.28.468-.28.852 0 .366.087.65.28.834.19.184.435.283.712.283v.567c-.522 0-.956-.151-1.269-.45-.313-.285-.486-.703-.486-1.22 0-.333.068-.617.173-.832.087-.169.193-.319.332-.452.157-.133.312-.234.47-.282.223-.1.484-.133.78-.133Zm-15.361.05h.714v1.77c0 .282.016.467.035.55a.54.54 0 0 0 .226.318c.122.084.277.118.486.118.21 0 .365-.034.47-.118a.472.472 0 0 0 .193-.283c.016-.1.016-.284.016-.55v-1.803h.731v1.719c0 .383-.019.668-.052.835a.78.78 0 0 1-.225.4c-.104.116-.245.2-.419.268-.174.065-.418.099-.695.099-.348 0-.609-.034-.783-.116a.992.992 0 0 1-.434-.268.833.833 0 0 1-.191-.367c-.052-.183-.07-.468-.07-.834v-1.738h-.002Zm5.966 2.069.714.2c-.122.352-.296.618-.557.784-.244.184-.573.268-.956.268-.487 0-.87-.152-1.182-.451-.313-.285-.47-.702-.47-1.202 0-.55.155-.967.47-1.269.313-.301.73-.451 1.234-.451.434 0 .8.118 1.078.35.158.133.28.333.365.6l-.731.15a.64.64 0 0 0-.26-.4c-.14-.101-.297-.133-.488-.133-.279 0-.488.082-.66.25-.174.183-.244.45-.244.85 0 .401.068.7.244.87.157.183.383.267.644.267.19 0 .348-.05.505-.166.139-.098.226-.283.294-.517Zm1.358 1.202v-3.239h.731v2.688h1.81v.55h-2.54Zm3.062 0v-3.27h2.68v.55h-1.949v.733h1.828v.536h-1.828v.902h2.019v.55h-2.75v-.001Z" fill="#000"/><path d="M15.402 9c-.743 0-1.772-.745-2.563-1.85-1.053-1.478-1.341-3.06-.66-3.6a.85.85 0 0 1 .542-.175c.743 0 1.772.745 2.56 1.85 1.055 1.478 1.342 3.058.66 3.598a.837.837 0 0 1-.539.177Zm-2.681-5.412a.66.66 0 0 0-.417.13c-.574.454-.255 1.969.699 3.306.751 1.056 1.715 1.765 2.397 1.765a.648.648 0 0 0 .417-.133c.574-.453.253-1.965-.7-3.305-.75-1.054-1.712-1.763-2.396-1.763Z" fill="#000"/><path d="M12.738 9a.878.878 0 0 1-.518-.153c-.716-.504-.47-2.068.56-3.56.792-1.145 1.837-1.912 2.604-1.912.198 0 .374.052.518.153.714.507.47 2.07-.56 3.562C14.55 8.23 13.505 9 12.738 9Zm2.646-5.42c-.69 0-1.689.75-2.43 1.823-.932 1.35-1.212 2.85-.613 3.273a.69.69 0 0 0 .397.117c.69 0 1.689-.75 2.43-1.824.932-1.35 1.212-2.847.613-3.273a.674.674 0 0 0-.397-.116Z" fill="#000"/><path d="M13.935 7.875c-1.803 0-3.232-.708-3.25-1.61-.019-.945 1.449-1.719 3.343-1.764 1.88-.038 3.39.68 3.407 1.609.02.944-1.45 1.718-3.341 1.76-.055.003-.108.005-.159.005Zm.246-3.149c-.05 0-.1 0-.151.003-1.71.038-3.142.74-3.127 1.531.016.79 1.46 1.428 3.182 1.388 1.71-.038 3.142-.74 3.126-1.532-.013-.767-1.373-1.39-3.03-1.39Z" fill="#000"/><path fill-rule="evenodd" clip-rule="evenodd" d="M13.489 5.625a.56.56 0 0 1 .571.554.562.562 0 1 1-.572-.553Z" fill="#000"/><path d="M15.748 12.375c-6.024 0-10.258-.553-12.753-3.313C1.258 7.142.465 4.212.57.1L.572.01h2.26l-.003.094C2.66 6.708 5.2 10.576 10.2 11.381 5.5 10.054 3.344 6.431 3.439.104L3.44.013 5.82.011l-.004.095c-.204 5.3 1.192 8.587 4.484 10.384C7.51 8.535 6.232 5.05 6.503.102l.004-.087 2.219-.01c.246.002.49.01.732.019C10.306.009 11.01 0 11.668 0c5.121 0 10.27.443 13.235 3.658 1.816 1.968 2.685 4.784 2.657 8.613v.091l-2.255.002.003-.095c.188-5.71-1.563-9.023-5.761-10.585 3.63 1.698 5.243 5.08 5.16 10.585l-.002.089-2.386.002.006-.098c.319-5.287-1.085-8.563-4.517-10.357 2.857 1.948 4.138 5.426 3.813 10.372l-.006.087-2.328.002c-.343.002-.686-.002-1.025-.013-.745.011-1.63.022-2.514.022ZM.738.193c-.092 4.012.687 6.871 2.378 8.741 2.453 2.712 6.653 3.257 12.632 3.257.884 0 3.21-.007 3.559-.01h.175l1.975-.001c.355-5.721-1.478-9.429-5.45-11.026l.054-.173c4.801 1.57 6.788 5.026 6.441 11.194l2.038-.002C24.619 5.465 22.117 1.987 16.438.9l.029-.18c6.524 1.022 9.225 4.45 9.017 11.46l1.908-.002c.012-3.73-.84-6.476-2.608-8.392C21.863.62 16.753.182 11.669.182c-.658 0-1.36.007-2.21.024a35.39 35.39 0 0 0-.675-.02l-.058.01-2.054.001c-.292 5.76 1.546 9.488 5.47 11.078l-.055.174C7.419 9.899 5.43 6.426 5.649.193L3.616.195c-.079 6.789 2.495 10.39 8.093 11.332l-.016.182C5.625 11.464 2.504 7.481 2.666.191L.737.193Z" fill="#000"/></svg>
